plasma/desktoptheme/Arc-Dark/widgets/scrollbar.svg

<?xml version="1.0" encoding="UTF-8"?>
<svg width="29" height="43" version="1" xmlns="http://www.w3.org/2000/svg">
 <rect id="hint-scrollbar-size" y="4" width="7" height="7" rx="0" ry="7" fill="#4e9a06"/>
 <rect id="hint-tile-center" x="10" y="4" width="2" height="2" rx="0" ry="2" fill="#4e9a06"/>
 <rect id="background-vertical-top" x="6" y="15" width="1" height="6" opacity=".001"/>
 <rect id="background-vertical-center" x="6" y="21" width="1" height="1" opacity=".001"/>
 <rect id="background-vertical-bottom" x="6" y="22" width="1" height="6" opacity=".001"/>
 <g id="background-vertical-topleft" transform="translate(-42,15)">
  <rect x="42" width="6" height="6" opacity=".001"/>
 </g>
 <g id="background-vertical-bottomleft" transform="translate(-42,15)">
  <rect x="42" y="7" width="6" height="6" opacity=".001"/>
 </g>
 <g id="background-vertical-left" transform="translate(-42,15)">
  <rect x="42" y="6" width="6" height="1" opacity=".001"/>
 </g>
 <g id="background-vertical-topright" transform="translate(-42,15)">
  <rect x="49" width="6" height="6" opacity=".001"/>
 </g>
 <g id="background-vertical-bottomright" transform="translate(-42,15)">
  <rect x="49" y="7" width="6" height="6" opacity=".001"/>
 </g>
 <g id="background-vertical-right" transform="translate(-42,15)">
  <rect x="49" y="6" width="6" height="1" opacity=".001"/>
 </g>
 <rect id="background-horizontal-right" transform="rotate(90)" x="36" y="-13" width="1" height="6" opacity=".001"/>
 <rect id="background-horizontal-center" transform="rotate(90)" x="36" y="-7" width="1" height="1" opacity=".001"/>
 <rect id="background-horizontal-left" transform="rotate(90)" x="36" y="-6" width="1" height="6" opacity=".001"/>
 <g id="background-horizontal-topright" transform="rotate(90 12.5 .5)">
  <rect x="42" width="6" height="6" opacity=".001"/>
 </g>
 <g id="background-horizontal-topleft" transform="rotate(90 12.5 .5)">
  <rect x="42" y="7" width="6" height="6" opacity=".001"/>
 </g>
 <g id="background-horizontal-top" transform="rotate(90 12.5 .5)">
  <rect x="42" y="6" width="6" height="1" opacity=".001"/>
 </g>
 <g id="background-horizontal-bottomright" transform="rotate(90 12.5 .5)">
  <rect x="49" width="6" height="6" opacity=".001"/>
 </g>
 <g id="background-horizontal-bottomleft" transform="rotate(90 12.5 .5)">
  <rect x="49" y="7" width="6" height="6" opacity=".001"/>
 </g>
 <g id="background-horizontal-bottom" transform="rotate(90 12.5 .5)">
  <rect x="49" y="6" width="6" height="1" opacity=".001"/>
 </g>
 <rect id="slider-center" x="22" y="6" width="1" height="1" fill="#767b87"/>
 <g id="slider-topleft" transform="translate(-42)">
  <rect x="58" width="6" height="6" opacity=".001"/>
  <path d="m64 4v2h-2c0-1.108 0.892-2 2-2z" fill="#767b87"/>
 </g>
 <g id="slider-top" transform="translate(-42)">
  <rect x="64" width="1" height="6" opacity=".001"/>
  <path d="m65 6h-1v-2h1z" fill="#767b87"/>
 </g>
 <g id="slider-topright" transform="translate(-42)">
  <rect x="65" width="6" height="6" opacity=".001"/>
  <path d="m65 4v2h2c0-1.108-0.892-2-2-2z" fill="#767b87"/>
 </g>
 <g id="slider-bottomleft" transform="translate(-42)">
  <rect x="58" y="7" width="6" height="6" opacity=".001"/>
  <path d="m64 9v-2h-2c0 1.108 0.892 2 2 2z" fill="#767b87"/>
 </g>
 <g id="slider-bottom" transform="translate(-42)">
  <rect x="64" y="7" width="1" height="6" opacity=".001"/>
  <path d="m65 7h-1v2h1z" fill="#767b87"/>
 </g>
 <g id="slider-bottomright" transform="translate(-42)">
  <rect x="65" y="7" width="6" height="6" opacity=".001"/>
  <path d="m65 9v-2h2c0 1.108-0.892 2-2 2z" fill="#767b87"/>
 </g>
 <g id="slider-left" transform="translate(-42)">
  <rect x="58" y="6" width="6" height="1" opacity=".001"/>
  <path d="m64 7v-1h-2v1z" fill="#767b87"/>
 </g>
 <g id="slider-right" transform="translate(-42)">
  <rect x="65" y="6" width="6" height="1" opacity=".001"/>
  <path d="m67 7v-1h-2v1z" fill="#767b87"/>
 </g>
 <rect id="mouseover-slider-center" x="22" y="21" width="1" height="1" fill="#8f939d"/>
 <g id="mouseover-slider-topleft" transform="translate(-42,15)">
  <rect x="58" width="6" height="6" opacity=".001"/>
  <path d="m64 3v3h-3c0-1.662 1.338-3 3-3z" fill="#8f939d"/>
 </g>
 <g id="mouseover-slider-top" transform="translate(-42,15)">
  <rect x="64" width="1" height="6" opacity=".001"/>
  <path d="m65 6h-1v-3h1z" fill="#8f939d"/>
 </g>
 <g id="mouseover-slider-topright" transform="translate(-42,15)">
  <rect x="65" width="6" height="6" opacity=".001"/>
  <path d="m65 3v3h3c0-1.662-1.338-3-3-3z" fill="#8f939d"/>
 </g>
 <g id="mouseover-slider-bottomleft" transform="translate(-42,15)">
  <rect x="58" y="7" width="6" height="6" opacity=".001"/>
  <path d="m64 10v-3h-3c0 1.662 1.338 3 3 3z" fill="#8f939d"/>
 </g>
 <g id="mouseover-slider-bottom" transform="translate(-42,15)">
  <rect x="64" y="7" width="1" height="6" opacity=".001"/>
  <path d="m65 7h-1v3h1z" fill="#8f939d"/>
 </g>
 <g id="mouseover-slider-bottomright" transform="translate(-42,15)">
  <rect x="65" y="7" width="6" height="6" opacity=".001"/>
  <path d="m65 10v-3h3c0 1.662-1.338 3-3 3z" fill="#8f939d"/>
 </g>
 <g id="mouseover-slider-left" transform="translate(-42,15)">
  <rect x="58" y="6" width="6" height="1" opacity=".001"/>
  <path d="m64 7v-1h-3v1z" fill="#8f939d"/>
 </g>
 <g id="mouseover-slider-right" transform="translate(-42,15)">
  <rect x="65" y="6" width="6" height="1" opacity=".001"/>
  <path d="m68 7v-1h-3v1z" fill="#8f939d"/>
 </g>
 <rect id="sunken-slider-center" x="22" y="36" width="1" height="1" fill="#5c87cc"/>
 <g id="sunken-slider-topleft" transform="translate(-42,30)">
  <rect x="58" width="6" height="6" opacity=".001"/>
  <path d="m64 3v3h-3c0-1.662 1.338-3 3-3z" fill="#5c87cc"/>
 </g>
 <g id="sunken-slider-top" transform="translate(-42,30)">
  <rect x="64" width="1" height="6" opacity=".001"/>
  <path d="m65 6h-1v-3h1z" fill="#5c87cc"/>
 </g>
 <g id="sunken-slider-topright" transform="translate(-42,30)">
  <rect x="65" width="6" height="6" opacity=".001"/>
  <path d="m65 3v3h3c0-1.662-1.338-3-3-3z" fill="#5c87cc"/>
 </g>
 <g id="sunken-slider-bottomleft" transform="translate(-42,30)">
  <rect x="58" y="7" width="6" height="6" opacity=".001"/>
  <path d="m64 10v-3h-3c0 1.662 1.338 3 3 3z" fill="#5c87cc"/>
 </g>
 <g id="sunken-slider-bottom" transform="translate(-42,30)">
  <rect x="64" y="7" width="1" height="6" opacity=".001"/>
  <path d="m65 7h-1v3h1z" fill="#5c87cc"/>
 </g>
 <g id="sunken-slider-bottomright" transform="translate(-42,30)">
  <rect x="65" y="7" width="6" height="6" opacity=".001"/>
  <path d="m65 10v-3h3c0 1.662-1.338 3-3 3z" fill="#5c87cc"/>
 </g>
 <g id="sunken-slider-left" transform="translate(-42,30)">
  <rect x="58" y="6" width="6" height="1" opacity=".001"/>
  <path d="m64 7v-1h-3v1z" fill="#5c87cc"/>
 </g>
 <g id="sunken-slider-right" transform="translate(-42,30)">
  <rect x="65" y="6" width="6" height="1" opacity=".001"/>
  <path d="m68 7v-1h-3v1z" fill="#5c87cc"/>
 </g>
</svg>

<svg xmlns="http://www.w3.org/2000/svg" width="29" height="43" version="1">
 <rect id="hint-scrollbar-size" style="fill:#4e9a06" width="7" height="7" x="0" y="4" rx="0" ry="7"/>
 <rect id="hint-tile-center" style="fill:#4e9a06" width="2" height="2" x="10" y="4" rx="0" ry="2"/>
 <rect id="background-vertical-top" style="opacity:0.001" width="1" height="6" x="6" y="15"/>
 <rect id="background-vertical-center" style="opacity:0.001" width="1" height="1" x="6" y="21"/>
 <rect id="background-vertical-bottom" style="opacity:0.001" width="1" height="6" x="6" y="22"/>
 <g id="background-vertical-topleft" transform="translate(-42,15)">
  <rect style="opacity:0.001" width="6" height="6" x="42" y="0"/>
 </g>
 <g id="background-vertical-bottomleft" transform="translate(-42,15)">
  <rect style="opacity:0.001" width="6" height="6" x="42" y="7"/>
 </g>
 <g id="background-vertical-left" transform="translate(-42,15)">
  <rect style="opacity:0.001" width="6" height="1" x="42" y="6"/>
 </g>
 <g id="background-vertical-topright" transform="translate(-42,15)">
  <rect style="opacity:0.001" width="6" height="6" x="49" y="0"/>
 </g>
 <g id="background-vertical-bottomright" transform="translate(-42,15)">
  <rect style="opacity:0.001" width="6" height="6" x="49" y="7"/>
 </g>
 <g id="background-vertical-right" transform="translate(-42,15)">
  <rect style="opacity:0.001" width="6" height="1" x="49" y="6"/>
 </g>
 <rect id="background-horizontal-right" style="opacity:0.001" width="1" height="6" x="36" y="-13" transform="rotate(90)"/>
 <rect id="background-horizontal-center" style="opacity:0.001" width="1" height="1" x="36" y="-7" transform="rotate(90)"/>
 <rect id="background-horizontal-left" style="opacity:0.001" width="1" height="6" x="36" y="-6" transform="rotate(90)"/>
 <g id="background-horizontal-topright" transform="rotate(90,12.5,0.5)">
  <rect style="opacity:0.001" width="6" height="6" x="42" y="0"/>
 </g>
 <g id="background-horizontal-topleft" transform="rotate(90,12.5,0.5)">
  <rect style="opacity:0.001" width="6" height="6" x="42" y="7"/>
 </g>
 <g id="background-horizontal-top" transform="rotate(90,12.5,0.5)">
  <rect style="opacity:0.001" width="6" height="1" x="42" y="6"/>
 </g>
 <g id="background-horizontal-bottomright" transform="rotate(90,12.5,0.5)">
  <rect style="opacity:0.001" width="6" height="6" x="49" y="0"/>
 </g>
 <g id="background-horizontal-bottomleft" transform="rotate(90,12.5,0.5)">
  <rect style="opacity:0.001" width="6" height="6" x="49" y="7"/>
 </g>
 <g id="background-horizontal-bottom" transform="rotate(90,12.5,0.5)">
  <rect style="opacity:0.001" width="6" height="1" x="49" y="6"/>
 </g>
 <rect id="slider-center" style="fill:#767b87" width="1" height="1" x="22" y="6"/>
 <g id="slider-topleft" transform="translate(-42)">
  <rect style="opacity:0.001" width="6" height="6" x="58" y="0"/>
  <path style="fill:#767b87" d="M 64,4 V 6 H 62 C 62,4.892 62.892,4 64,4 Z"/>
 </g>
 <g id="slider-top" transform="translate(-42)">
  <rect style="opacity:0.001" width="1" height="6" x="64" y="0"/>
  <path style="fill:#767b87" d="M 65,6 H 64 V 4 h 1 z"/>
 </g>
 <g id="slider-topright" transform="translate(-42)">
  <rect style="opacity:0.001" width="6" height="6" x="65" y="0"/>
  <path style="fill:#767b87" d="m 65,4 v 2 h 2 C 67,4.892 66.108,4 65,4 Z"/>
 </g>
 <g id="slider-bottomleft" transform="translate(-42)">
  <rect style="opacity:0.001" width="6" height="6" x="58" y="7"/>
  <path style="fill:#767b87" d="M 64,9 V 7 h -2 c 0,1.108 0.892,2 2,2 z"/>
 </g>
 <g id="slider-bottom" transform="translate(-42)">
  <rect style="opacity:0.001" width="1" height="6" x="64" y="7"/>
  <path style="fill:#767b87" d="m 65,7 h -1 v 2 h 1 z"/>
 </g>
 <g id="slider-bottomright" transform="translate(-42)">
  <rect style="opacity:0.001" width="6" height="6" x="65" y="7"/>
  <path style="fill:#767b87" d="M 65,9 V 7 h 2 c 0,1.108 -0.892,2 -2,2 z"/>
 </g>
 <g id="slider-left" transform="translate(-42)">
  <rect style="opacity:0.001" width="6" height="1" x="58" y="6"/>
  <path style="fill:#767b87" d="M 64,7 V 6 h -2 v 1 z"/>
 </g>
 <g id="slider-right" transform="translate(-42)">
  <rect style="opacity:0.001" width="6" height="1" x="65" y="6"/>
  <path style="fill:#767b87" d="M 67,7 V 6 h -2 v 1 z"/>
 </g>
 <rect id="mouseover-slider-center" style="fill:#8f939d" width="1" height="1" x="22" y="21"/>
 <g id="mouseover-slider-topleft" transform="translate(-42,15)">
  <rect style="opacity:0.001" width="6" height="6" x="58" y="0"/>
  <path style="fill:#8f939d" d="M 64,3 V 6 H 61 C 61,4.338 62.338,3 64,3 Z"/>
 </g>
 <g id="mouseover-slider-top" transform="translate(-42,15)">
  <rect style="opacity:0.001" width="1" height="6" x="64" y="0"/>
  <path style="fill:#8f939d" d="M 65,6 H 64 V 3 h 1 z"/>
 </g>
 <g id="mouseover-slider-topright" transform="translate(-42,15)">
  <rect style="opacity:0.001" width="6" height="6" x="65" y="0"/>
  <path style="fill:#8f939d" d="m 65,3 v 3 h 3 C 68,4.338 66.662,3 65,3 Z"/>
 </g>
 <g id="mouseover-slider-bottomleft" transform="translate(-42,15)">
  <rect style="opacity:0.001" width="6" height="6" x="58" y="7"/>
  <path style="fill:#8f939d" d="M 64,10 V 7 h -3 c 0,1.662 1.338,3 3,3 z"/>
 </g>
 <g id="mouseover-slider-bottom" transform="translate(-42,15)">
  <rect style="opacity:0.001" width="1" height="6" x="64" y="7"/>
  <path style="fill:#8f939d" d="m 65,7 h -1 v 3 h 1 z"/>
 </g>
 <g id="mouseover-slider-bottomright" transform="translate(-42,15)">
  <rect style="opacity:0.001" width="6" height="6" x="65" y="7"/>
  <path style="fill:#8f939d" d="M 65,10 V 7 h 3 c 0,1.662 -1.338,3 -3,3 z"/>
 </g>
 <g id="mouseover-slider-left" transform="translate(-42,15)">
  <rect style="opacity:0.001" width="6" height="1" x="58" y="6"/>
  <path style="fill:#8f939d" d="M 64,7 V 6 h -3 v 1 z"/>
 </g>
 <g id="mouseover-slider-right" transform="translate(-42,15)">
  <rect style="opacity:0.001" width="6" height="1" x="65" y="6"/>
  <path style="fill:#8f939d" d="M 68,7 V 6 h -3 v 1 z"/>
 </g>
 <rect id="sunken-slider-center" style="fill:#5c87cc" width="1" height="1" x="22" y="36"/>
 <g id="sunken-slider-topleft" transform="translate(-42,30)">
  <rect style="opacity:0.001" width="6" height="6" x="58" y="0"/>
  <path style="fill:#5c87cc" d="M 64,3 V 6 H 61 C 61,4.338 62.338,3 64,3 Z"/>
 </g>
 <g id="sunken-slider-top" transform="translate(-42,30)">
  <rect style="opacity:0.001" width="1" height="6" x="64" y="0"/>
  <path style="fill:#5c87cc" d="M 65,6 H 64 V 3 h 1 z"/>
 </g>
 <g id="sunken-slider-topright" transform="translate(-42,30)">
  <rect style="opacity:0.001" width="6" height="6" x="65" y="0"/>
  <path style="fill:#5c87cc" d="m 65,3 v 3 h 3 C 68,4.338 66.662,3 65,3 Z"/>
 </g>
 <g id="sunken-slider-bottomleft" transform="translate(-42,30)">
  <rect style="opacity:0.001" width="6" height="6" x="58" y="7"/>
  <path style="fill:#5c87cc" d="M 64,10 V 7 h -3 c 0,1.662 1.338,3 3,3 z"/>
 </g>
 <g id="sunken-slider-bottom" transform="translate(-42,30)">
  <rect style="opacity:0.001" width="1" height="6" x="64" y="7"/>
  <path style="fill:#5c87cc" d="m 65,7 h -1 v 3 h 1 z"/>
 </g>
 <g id="sunken-slider-bottomright" transform="translate(-42,30)">
  <rect style="opacity:0.001" width="6" height="6" x="65" y="7"/>
  <path style="fill:#5c87cc" d="M 65,10 V 7 h 3 c 0,1.662 -1.338,3 -3,3 z"/>
 </g>
 <g id="sunken-slider-left" transform="translate(-42,30)">
  <rect style="opacity:0.001" width="6" height="1" x="58" y="6"/>
  <path style="fill:#5c87cc" d="M 64,7 V 6 h -3 v 1 z"/>
 </g>
 <g id="sunken-slider-right" transform="translate(-42,30)">
  <rect style="opacity:0.001" width="6" height="1" x="65" y="6"/>
  <path style="fill:#5c87cc" d="M 68,7 V 6 h -3 v 1 z"/>
 </g>
</svg>
